X:1
T:HARVEST HOME
M:C|
L:1/8
Q:80
C:D. Johnstone
S:Hornpipe
K:HP
|: {g}f3/4e/4|
{Gdc}d{g}f{AGAG}A{g}f/2e/2|
{g}d3/4B/4{g}G3/4B/4{Gdc}d3/4f/4{g}e3/4d/4|  !
{g}c/4e3/4{g}A{GAG}A{g}e/2d/2|
{g}c/4{d}A3/4{g}c/4d3/4{ag}aB/2c/2|
{gde}d3/4B/4{g}c/4{d}A3/4{g}B3/4{d}G/4{e}G3/4{d}B/4|  !
{a}g3/4f/4{g}e/2d/2{gcd}c{g}B/2{d}A/2|
{g}B/4d3/4{g}c/4e3/4{Gdc}d3/4f/4a3/4g/2|
{fg}fd{gdc}d:| |:  !
a/2g/2|
{a}f/4a3/4{dc}d/2a/2{g}f/4a3/4{dc}d/2c/2|
{gBd}B{e}G{g}G{d}B|  !
{g}A3/4{d}B/4{g}e3/4d/4{g}G3/4{d}B/4{g}e3/4B/4|
{gcd}c{e}A{GAG}AB/2c/2|
{gde}d3/4B/4{g}c/4{d}A3/4{g}B3/4{d}G/4{e}G3/4{d}B/4|  !
{a}g3/4f/4{g}e/2d/2{gcd}c{g}B/2{d}A/2|
{g}B/4d3/4{g}c/4e3/4{Gdc}d3/4f/4a3/4g/2|
{fg}fd{gdc}d:|  !

